assets/svg/icon_steps_check_active.svg

<svg width="16" height="16" viewBox="0 0 16 16" fill="none" xmlns="http://www.w3.org/2000/svg">
<rect x="0.5" y="0.5" width="15" height="15" rx="7.5" stroke="#0166FF"/>
<path d="M7.32928 10.4933L11.288 6.34654C11.3942 6.2353 11.4539 6.08444 11.4539 5.92712C11.4539 5.76981 11.3942 5.61895 11.288 5.50771C11.1819 5.39648 11.0378 5.33398 10.8876 5.33398C10.7375 5.33398 10.5934 5.39648 10.4872 5.50771L6.92888 9.23623L5.63267 7.87728C5.58009 7.8222 5.51766 7.77851 5.44896 7.7487C5.38026 7.71889 5.30663 7.70355 5.23227 7.70355C5.08209 7.70355 4.93806 7.76604 4.83187 7.87728C4.77929 7.93236 4.73758 7.99774 4.70912 8.06971C4.68066 8.14167 4.66602 8.2188 4.66602 8.29669C4.66602 8.37458 4.68066 8.45171 4.70912 8.52368C4.73758 8.59564 4.77929 8.66103 4.83187 8.71611L6.52848 10.4933C6.58101 10.5484 6.64342 10.5922 6.71213 10.6221C6.78084 10.6519 6.85449 10.6673 6.92888 10.6673C7.00327 10.6673 7.07693 10.6519 7.14563 10.6221C7.21434 10.5922 7.27675 10.5484 7.32928 10.4933Z" fill="#0166FF"/>
</svg>

<svg xmlns="http://www.w3.org/2000/svg" width="16" height="16" fill="none"><rect width="15" height="15" x=".5" y=".5" stroke="#0166FF" rx="7.5"/><path fill="#0166FF" d="m7.33 10.493 3.958-4.146a.6.6 0 0 0 .166-.42.6.6 0 0 0-.166-.42.55.55 0 0 0-.4-.173.55.55 0 0 0-.4.174l-3.56 3.728-1.295-1.359a.56.56 0 0 0-.4-.173.55.55 0 0 0-.401.173.6.6 0 0 0-.166.42.62.62 0 0 0 .166.42l1.696 1.776a.57.57 0 0 0 .4.174.54.54 0 0 0 .401-.174"/></svg>
